coptic-neo-reader/editor/assets/ic_download.svg

<svg xmlns="http://www.w3.org/2000/svg" fill="none" viewBox="0 0 24 24"><path fill="#000" fill-opacity=".54" fill-rule="evenodd" d="M19 9.5h-4v-6H9v6H5l7 7 7-7Zm-8 2v-6h2v6h1.17L12 13.67 9.83 11.5H11Zm8 9v-2H5v2h14Z" clip-rule="evenodd"/></svg>

<svg width="24" height="24" viewBox="0 0 24 24" fill="none" xmlns="http://www.w3.org/2000/svg">
<g id="icon/file/download_24px">
<path id="icon/file/download_24px_2" fill-rule="evenodd" clip-rule="evenodd" d="M19 9.5H15V3.5H9V9.5H5L12 16.5L19 9.5ZM11 11.5V5.5H13V11.5H14.17L12 13.67L9.83002 11.5H11ZM19 20.5V18.5H5V20.5H19Z" fill="black" fill-opacity="0.54"/>
</g>
</svg>
